symbols/placeholder_square.svg

<svg xmlns="http://www.w3.org/2000/svg" width="48" height="48" viewBox="0 0 100 100"><title>placeholder-square</title><g class="symbol placeholder simple"><path fill="none" d="M0 0h100v100H0z"/><path class="inner-white" opacity=".35" fill="#fff" d="M13 13h74v74H13z"/><path class="outer" d="M87 80.5a1.5 1.5 0 0 0-1.5 1.5v3.5H82a1.5 1.5 0 0 0 0 3h5a1.5 1.5 0 0 0 1.5-1.5v-5a1.5 1.5 0 0 0-1.5-1.5zm-32.43 5h-9.14a1.5 1.5 0 0 0 0 3h9.14a1.5 1.5 0 0 0 0-3zm-18.28 0h-9.15a1.5 1.5 0 0 0 0 3h9.15a1.5 1.5 0 0 0 0-3zm36.57 0h-9.15a1.5 1.5 0 0 0 0 3h9.15a1.5 1.5 0 1 0 0-3zM18 85.5h-3.5V82a1.5 1.5 0 0 0-3 0v5a1.5 1.5 0 0 0 1.5 1.5h5a1.5 1.5 0 0 0 0-3zm-5-29.43a1.5 1.5 0 0 0 1.5-1.5v-9.14a1.5 1.5 0 0 0-3 0v9.14a1.5 1.5 0 0 0 1.5 1.5zm0-18.28a1.5 1.5 0 0 0 1.5-1.5v-9.15a1.5 1.5 0 0 0-3 0v9.15a1.5 1.5 0 0 0 1.5 1.5zm0 36.57a1.5 1.5 0 0 0 1.5-1.5v-9.15a1.5 1.5 0 0 0-3 0v9.15a1.5 1.5 0 0 0 1.5 1.5zm5-62.86h-5a1.5 1.5 0 0 0-1.5 1.5v5a1.5 1.5 0 0 0 3 0v-3.5H18a1.5 1.5 0 0 0 0-3zm9.14 3h9.15a1.5 1.5 0 0 0 0-3h-9.15a1.5 1.5 0 0 0 0 3zm36.57 0h9.15a1.5 1.5 0 0 0 0-3h-9.15a1.5 1.5 0 0 0 0 3zm-9.14-3h-9.14a1.5 1.5 0 0 0 0 3h9.14a1.5 1.5 0 0 0 0-3zm32.43 0h-5a1.5 1.5 0 0 0 0 3h3.5V18a1.5 1.5 0 0 0 3 0v-5a1.5 1.5 0 0 0-1.5-1.5zm0 32.43a1.5 1.5 0 0 0-1.5 1.5v9.14a1.5 1.5 0 0 0 3 0v-9.14a1.5 1.5 0 0 0-1.5-1.5zm0 18.28a1.5 1.5 0 0 0-1.5 1.5v9.15a1.5 1.5 0 1 0 3 0v-9.15a1.5 1.5 0 0 0-1.5-1.5zm0-36.57a1.5 1.5 0 0 0-1.5 1.5v9.15a1.5 1.5 0 0 0 3 0v-9.15a1.5 1.5 0 0 0-1.5-1.5z" fill="#282828"/><path class="edging" opacity=".65" d="M87 11.5a1.5 1.5 0 0 1 1.5 1.5v5a1.5 1.5 0 0 1-3 0v-3.5H82a1.5 1.5 0 0 1 0-3h5m-14.14 0a1.5 1.5 0 0 1 0 3h-9.15a1.5 1.5 0 0 1 0-3h9.15m-18.29 0a1.5 1.5 0 0 1 0 3h-9.14a1.5 1.5 0 0 1 0-3h9.14m-18.28 0a1.5 1.5 0 0 1 0 3h-9.15a1.5 1.5 0 0 1 0-3h9.15M18 11.5a1.5 1.5 0 0 1 0 3h-3.5V18a1.5 1.5 0 0 1-3 0v-5a1.5 1.5 0 0 1 1.5-1.5h5m-5 14.14a1.5 1.5 0 0 1 1.5 1.5v9.15a1.5 1.5 0 0 1-3 0v-9.15a1.5 1.5 0 0 1 1.5-1.5m74 0a1.5 1.5 0 0 1 1.5 1.5v9.15a1.5 1.5 0 0 1-3 0v-9.15a1.5 1.5 0 0 1 1.5-1.5M13 43.93a1.5 1.5 0 0 1 1.5 1.5v9.14a1.5 1.5 0 0 1-3 0v-9.14a1.5 1.5 0 0 1 1.5-1.5m74 0a1.5 1.5 0 0 1 1.5 1.5v9.14a1.5 1.5 0 0 1-3 0v-9.14a1.5 1.5 0 0 1 1.5-1.5M13 62.21a1.5 1.5 0 0 1 1.5 1.5v9.15a1.5 1.5 0 0 1-3 0v-9.15a1.5 1.5 0 0 1 1.5-1.5m74 0a1.5 1.5 0 0 1 1.5 1.5v9.15a1.5 1.5 0 1 1-3 0v-9.15a1.5 1.5 0 0 1 1.5-1.5m0 18.29a1.5 1.5 0 0 1 1.5 1.5v5a1.5 1.5 0 0 1-1.5 1.5h-5a1.5 1.5 0 0 1 0-3h3.5V82a1.5 1.5 0 0 1 1.5-1.5m-74 0a1.5 1.5 0 0 1 1.5 1.5v3.5H18a1.5 1.5 0 0 1 0 3h-5a1.5 1.5 0 0 1-1.5-1.5v-5a1.5 1.5 0 0 1 1.5-1.5m59.86 5a1.5 1.5 0 1 1 0 3h-9.15a1.5 1.5 0 0 1 0-3h9.15m-18.29 0a1.5 1.5 0 0 1 0 3h-9.14a1.5 1.5 0 0 1 0-3h9.14m-18.28 0a1.5 1.5 0 0 1 0 3h-9.15a1.5 1.5 0 0 1 0-3h9.15M87 9.5h-5a3.5 3.5 0 0 0 0 7h1.5V18a3.5 3.5 0 0 0 7 0v-5A3.5 3.5 0 0 0 87 9.5zm-14.14 0h-9.15a3.5 3.5 0 0 0 0 7h9.15a3.5 3.5 0 0 0 0-7zm-18.29 0h-9.14a3.5 3.5 0 0 0 0 7h9.14a3.5 3.5 0 0 0 0-7zm-18.28 0h-9.15a3.5 3.5 0 0 0 0 7h9.15a3.5 3.5 0 0 0 0-7zM18 9.5h-5A3.5 3.5 0 0 0 9.5 13v5a3.5 3.5 0 0 0 7 0v-1.5H18a3.5 3.5 0 0 0 0-7zm-5 14.14a3.5 3.5 0 0 0-3.5 3.5v9.15a3.5 3.5 0 0 0 7 0v-9.15a3.5 3.5 0 0 0-3.5-3.5zm74 0a3.5 3.5 0 0 0-3.5 3.5v9.15a3.5 3.5 0 0 0 7 0v-9.15a3.5 3.5 0 0 0-3.5-3.5zM13 41.93a3.5 3.5 0 0 0-3.5 3.5v9.14a3.5 3.5 0 0 0 7 0v-9.14a3.5 3.5 0 0 0-3.5-3.5zm74 0a3.5 3.5 0 0 0-3.5 3.5v9.14a3.5 3.5 0 0 0 7 0v-9.14a3.5 3.5 0 0 0-3.5-3.5zM13 60.21a3.5 3.5 0 0 0-3.5 3.5v9.15a3.5 3.5 0 0 0 7 0v-9.15a3.5 3.5 0 0 0-3.5-3.5zm74 0a3.5 3.5 0 0 0-3.5 3.5v9.15a3.5 3.5 0 1 0 7 0v-9.15a3.5 3.5 0 0 0-3.5-3.5zm0 18.29a3.5 3.5 0 0 0-3.5 3.5v1.5H82a3.5 3.5 0 0 0 0 7h5a3.5 3.5 0 0 0 3.5-3.5v-5a3.5 3.5 0 0 0-3.5-3.5zm-74 0A3.5 3.5 0 0 0 9.5 82v5a3.5 3.5 0 0 0 3.5 3.5h5a3.5 3.5 0 0 0 0-7h-1.5V82a3.5 3.5 0 0 0-3.5-3.5zm59.86 5h-9.15a3.5 3.5 0 0 0 0 7h9.15a3.5 3.5 0 1 0 0-7zm-18.29 0h-9.14a3.5 3.5 0 0 0 0 7h9.14a3.5 3.5 0 0 0 0-7zm-18.28 0h-9.15a3.5 3.5 0 0 0 0 7h9.15a3.5 3.5 0 0 0 0-7z" fill="#fff"/></g></svg>

<svg xmlns="http://www.w3.org/2000/svg" width="48" height="48" viewBox="0 0 100 100">
  <title>placeholder-square</title>
		<g id="placeholder-square" class="symbol placeholder simple">

		    <rect id="bounding" width="100" height="100" fill="none"/>

		    <rect class="inner-white" opacity="0.35" x="13" y="13" width="74" height="74" fill="#fff"/>

			<path class="outer" d="M87,80.5A1.5,1.5,0,0,0,85.5,82v3.5H82a1.5,1.5,0,0,0,0,3h5A1.5,1.5,0,0,0,88.5,87V82A1.5,1.5,0,0,0,87,80.5Zm-32.43,5H45.43a1.5,1.5,0,0,0,0,3h9.14a1.5,1.5,0,0,0,0-3Zm-18.28,0H27.14a1.5,1.5,0,0,0,0,3h9.15a1.5,1.5,0,0,0,0-3Zm36.57,0H63.71a1.5,1.5,0,0,0,0,3h9.15a1.5,1.5,0,1,0,0-3ZM18,85.5H14.5V82a1.5,1.5,0,0,0-3,0v5A1.5,1.5,0,0,0,13,88.5h5a1.5,1.5,0,0,0,0-3ZM13,56.07a1.5,1.5,0,0,0,1.5-1.5V45.43a1.5,1.5,0,0,0-3,0v9.14A1.5,1.5,0,0,0,13,56.07Zm0-18.28a1.5,1.5,0,0,0,1.5-1.5V27.14a1.5,1.5,0,0,0-3,0v9.15A1.5,1.5,0,0,0,13,37.79Zm0,36.57a1.5,1.5,0,0,0,1.5-1.5V63.71a1.5,1.5,0,0,0-3,0v9.15A1.5,1.5,0,0,0,13,74.36ZM18,11.5H13A1.5,1.5,0,0,0,11.5,13v5a1.5,1.5,0,0,0,3,0V14.5H18a1.5,1.5,0,0,0,0-3Zm9.14,3h9.15a1.5,1.5,0,0,0,0-3H27.14a1.5,1.5,0,0,0,0,3Zm36.57,0h9.15a1.5,1.5,0,0,0,0-3H63.71a1.5,1.5,0,0,0,0,3Zm-9.14-3H45.43a1.5,1.5,0,0,0,0,3h9.14a1.5,1.5,0,0,0,0-3ZM87,11.5H82a1.5,1.5,0,0,0,0,3h3.5V18a1.5,1.5,0,0,0,3,0V13A1.5,1.5,0,0,0,87,11.5Zm0,32.43a1.5,1.5,0,0,0-1.5,1.5v9.14a1.5,1.5,0,0,0,3,0V45.43A1.5,1.5,0,0,0,87,43.93Zm0,18.28a1.5,1.5,0,0,0-1.5,1.5v9.15a1.5,1.5,0,1,0,3,0V63.71A1.5,1.5,0,0,0,87,62.21Zm0-36.57a1.5,1.5,0,0,0-1.5,1.5v9.15a1.5,1.5,0,0,0,3,0V27.14A1.5,1.5,0,0,0,87,25.64Z" fill="#282828"/>

			<path class="edging" opacity="0.65" d="M87,11.5A1.5,1.5,0,0,1,88.5,13v5a1.5,1.5,0,0,1-3,0V14.5H82a1.5,1.5,0,0,1,0-3h5m-14.14,0a1.5,1.5,0,0,1,0,3H63.71a1.5,1.5,0,0,1,0-3h9.15m-18.29,0a1.5,1.5,0,0,1,0,3H45.43a1.5,1.5,0,0,1,0-3h9.14m-18.28,0a1.5,1.5,0,0,1,0,3H27.14a1.5,1.5,0,0,1,0-3h9.15M18,11.5a1.5,1.5,0,0,1,0,3H14.5V18a1.5,1.5,0,0,1-3,0V13A1.5,1.5,0,0,1,13,11.5h5M13,25.64a1.5,1.5,0,0,1,1.5,1.5v9.15a1.5,1.5,0,0,1-3,0V27.14a1.5,1.5,0,0,1,1.5-1.5m74,0a1.5,1.5,0,0,1,1.5,1.5v9.15a1.5,1.5,0,0,1-3,0V27.14a1.5,1.5,0,0,1,1.5-1.5M13,43.93a1.5,1.5,0,0,1,1.5,1.5v9.14a1.5,1.5,0,0,1-3,0V45.43a1.5,1.5,0,0,1,1.5-1.5m74,0a1.5,1.5,0,0,1,1.5,1.5v9.14a1.5,1.5,0,0,1-3,0V45.43a1.5,1.5,0,0,1,1.5-1.5M13,62.21a1.5,1.5,0,0,1,1.5,1.5v9.15a1.5,1.5,0,0,1-3,0V63.71a1.5,1.5,0,0,1,1.5-1.5m74,0a1.5,1.5,0,0,1,1.5,1.5v9.15a1.5,1.5,0,1,1-3,0V63.71a1.5,1.5,0,0,1,1.5-1.5M87,80.5A1.5,1.5,0,0,1,88.5,82v5A1.5,1.5,0,0,1,87,88.5H82a1.5,1.5,0,0,1,0-3h3.5V82A1.5,1.5,0,0,1,87,80.5m-74,0A1.5,1.5,0,0,1,14.5,82v3.5H18a1.5,1.5,0,0,1,0,3H13A1.5,1.5,0,0,1,11.5,87V82A1.5,1.5,0,0,1,13,80.5m59.86,5a1.5,1.5,0,1,1,0,3H63.71a1.5,1.5,0,0,1,0-3h9.15m-18.29,0a1.5,1.5,0,0,1,0,3H45.43a1.5,1.5,0,0,1,0-3h9.14m-18.28,0a1.5,1.5,0,0,1,0,3H27.14a1.5,1.5,0,0,1,0-3h9.15M87,9.5H82a3.5,3.5,0,0,0,0,7h1.5V18a3.5,3.5,0,0,0,7,0V13A3.5,3.5,0,0,0,87,9.5Zm-14.14,0H63.71a3.5,3.5,0,0,0,0,7h9.15a3.5,3.5,0,0,0,0-7Zm-18.29,0H45.43a3.5,3.5,0,0,0,0,7h9.14a3.5,3.5,0,0,0,0-7Zm-18.28,0H27.14a3.5,3.5,0,0,0,0,7h9.15a3.5,3.5,0,0,0,0-7ZM18,9.5H13A3.5,3.5,0,0,0,9.5,13v5a3.5,3.5,0,0,0,7,0V16.5H18a3.5,3.5,0,0,0,0-7ZM13,23.64a3.5,3.5,0,0,0-3.5,3.5v9.15a3.5,3.5,0,0,0,7,0V27.14a3.5,3.5,0,0,0-3.5-3.5Zm74,0a3.5,3.5,0,0,0-3.5,3.5v9.15a3.5,3.5,0,0,0,7,0V27.14a3.5,3.5,0,0,0-3.5-3.5ZM13,41.93a3.5,3.5,0,0,0-3.5,3.5v9.14a3.5,3.5,0,0,0,7,0V45.43a3.5,3.5,0,0,0-3.5-3.5Zm74,0a3.5,3.5,0,0,0-3.5,3.5v9.14a3.5,3.5,0,0,0,7,0V45.43a3.5,3.5,0,0,0-3.5-3.5ZM13,60.21a3.5,3.5,0,0,0-3.5,3.5v9.15a3.5,3.5,0,0,0,7,0V63.71a3.5,3.5,0,0,0-3.5-3.5Zm74,0a3.5,3.5,0,0,0-3.5,3.5v9.15a3.5,3.5,0,1,0,7,0V63.71a3.5,3.5,0,0,0-3.5-3.5ZM87,78.5A3.5,3.5,0,0,0,83.5,82v1.5H82a3.5,3.5,0,0,0,0,7h5A3.5,3.5,0,0,0,90.5,87V82A3.5,3.5,0,0,0,87,78.5Zm-74,0A3.5,3.5,0,0,0,9.5,82v5A3.5,3.5,0,0,0,13,90.5h5a3.5,3.5,0,0,0,0-7H16.5V82A3.5,3.5,0,0,0,13,78.5Zm59.86,5H63.71a3.5,3.5,0,0,0,0,7h9.15a3.5,3.5,0,1,0,0-7Zm-18.29,0H45.43a3.5,3.5,0,0,0,0,7h9.14a3.5,3.5,0,0,0,0-7Zm-18.28,0H27.14a3.5,3.5,0,0,0,0,7h9.15a3.5,3.5,0,0,0,0-7Z" fill="#fff"/>
		</g>
</svg>
